( Made using CamBam - http://www.cambam.co.uk )
( chilipeppr logo gcode v2 6/10/2014 10:45:27 PM )
( T0 : 0.0 )
G21 G90 G64 G40
G0 Z3.0
( T0 : 0.0 )
T0 M6
( Profile1 )
G17
M3 S1000
G0 X39.2659 Y-3.4776
G0 Z1.5
(Start inside of letter p)
G1 F300.0 Z0.0
G2 F800.0 X39.0719 Y-3.7614 I-2.0806 J1.2144
G2 X38.4511 Y-4.2692 I-1.5584 J1.2717
G2 X37.6702 Y-4.452 I-0.7659 J1.5128
G2 X36.9056 Y-4.2757 I-0.0154 J1.6797
G2 X36.2959 Y-3.7819 I0.9002 J1.7348
G2 X35.8365 Y-2.7942 I1.8061 J1.4408
G2 X35.7284 Y-1.7102 I4.813 J1.0272
G2 X35.8483 Y-0.5925 I4.765 J0.0543
G2 X36.3301 Y0.4231 I2.4581 J-0.5442
G2 X36.9417 Y0.9543 I1.7404 J-1.3862
G2 X37.7249 Y1.1615 I0.7787 J-1.3594
G2 X38.4864 Y0.9761 I0.0129 J-1.603
G2 X39.0856 Y0.4709 I-0.956 J-1.7421
G2 X39.5484 Y-0.5198 I-1.8693 J-1.4767
G2 X39.6599 Y-1.6076 I-4.7114 J-1.0326
G2 X39.5479 Y-2.7342 I-5.13 J-0.0589
G2 X39.2659 Y-3.4776 I-2.3626 J0.471
G0 Z3.0
G0 X31.8196 Y-2.4008
G0 Z1.5
(Start inside of 2nd letter p)
G1 F300.0 Z0.0
G2 F800.0 X31.7601 Y-2.7342 I-5.0775 J0.7343
G2 X31.2841 Y-3.7614 I-2.3626 J0.471
G2 X30.6633 Y-4.2692 I-1.5584 J1.2717
G2 X29.8824 Y-4.452 I-0.7659 J1.5128
G2 X29.1178 Y-4.2757 I-0.0154 J1.6797
G2 X28.5081 Y-3.7819 I0.9002 J1.7348
G2 X28.0487 Y-2.7942 I1.8061 J1.4408
G2 X27.9406 Y-1.7102 I4.813 J1.0272
G2 X28.0605 Y-0.5925 I4.765 J0.0543
G2 X28.5423 Y0.4231 I2.4581 J-0.5442
G2 X29.154 Y0.9543 I1.7404 J-1.3862
G2 X29.9371 Y1.1615 I0.7787 J-1.3594
G2 X30.6986 Y0.9761 I0.0129 J-1.603
G2 X31.2978 Y0.4709 I-0.956 J-1.7421
G2 X31.7606 Y-0.5198 I-1.8693 J-1.4767
G2 X31.8721 Y-1.6076 I-4.7114 J-1.0326
G2 X31.8196 Y-2.4008 I-5.13 J-0.0589
G0 Z3.0
G0 X24.0228 Y-0.9717
G0 Z1.5
(Start inside of letter e)
G1 F300.0 Z0.0
G1 F800.0 X19.9682
G2 X20.1433 Y-0.1529 I2.6707 J-0.1429
G2 X20.6041 Y0.5462 I1.8838 J-0.7402
G2 X22.0331 Y1.1137 I1.3829 J-1.3992
G2 X23.5579 Y0.4026 I0.0488 J-1.8857
G2 X23.8912 Y-0.2504 I-1.4401 J-1.1468
G2 X24.0228 Y-0.9717 I-3.5056 J-1.0121
G0 Z3.0
G0 X16.0656 Y1.1997
G0 Z1.5
(Start milling inside of capital letter P)
G1 F300.0 Z0.0
G2 F800.0 X16.0187 Y1.0503 I-2.023 J0.5521
G2 X15.5991 Y0.4368 I-1.4208 J0.5215
G2 X15.1882 Y0.1841 I-0.9816 J1.1362
G2 X14.7267 Y0.0436 I-0.9475 J2.2835
G2 X13.7736 Y-0.0419 I-0.8988 J4.668
G1 X11.1822
G1 Y3.5409
G1 X13.7462
G2 X14.3672 Y3.5272 I0.035 J-12.5051
G2 X14.9838 Y3.452 I-0.1044 J-3.4217
G2 X15.8179 Y2.8572 I-0.3806 J-1.416
G2 X16.1393 Y1.7837 I-1.4655 J-1.0236
G2 X16.0656 Y1.1997 I-2.0968 J-0.032
G0 Z3.0
G0 X17.3558 Y0.7982
G0 Z1.5
(Start outside of capital P)
G1 F300.0 Z0.0
G3 F800.0 X17.5068 Y1.8248 I-3.1958 J0.9943
G3 X17.1991 Y3.1922 I-3.0441 J0.0334
G3 X16.3991 Y4.1563 I-2.1915 J-1.0045
G3 X15.1615 Y4.6281 I-1.6639 J-2.5057
G3 X14.4011 Y4.7065 I-1.0183 J-6.1516
G3 X13.6368 Y4.7238 I-0.7265 J-15.1687
G1 X9.8557
G1 Y-5.2998
G1 X11.1822
G1 Y-1.2247
G1 X13.753
G3 X14.9267 Y-1.1429 I0.052 J7.7114
G3 X16.0548 Y-0.8086 I-0.5384 J3.8874
G3 X16.6931 Y-0.3427 I-0.9345 J1.9506
G3 X17.3102 Y0.6621 I-2.2201 J2.0554
G3 X17.3558 Y0.7982 I-3.1502 J1.1305
G0 Z3.0
G0 X18.952 Y0.1397
G0 Z1.5
(Start outside of letter e)
G1 F300.0 Z0.0
G3 F800.0 X18.8278 Y-0.2183 I3.0582 J-1.2616
G3 X18.6281 Y-1.7307 I5.1107 J-1.4443
G3 X18.8264 Y-3.1984 I5.0477 J-0.0654
G3 X19.558 Y-4.4862 I3.0794 J0.8979
G3 X20.7196 Y-5.2423 I2.1802 J2.0791
G3 X22.0878 Y-5.4639 I1.3135 J3.7744
G3 X23.1779 Y-5.3278 I0.0395 J4.1164
G3 X24.1664 Y-4.8485 I-0.7448 J2.7953
G3 X24.8709 Y-4.0785 I-1.7304 J2.2903
G3 X25.2809 Y-3.1187 I-2.9981 J1.8482
G1 X24.0091 Y-2.9614
G2 X23.7122 Y-3.5841 I-3.0043 J1.0502
G2 X23.2502 Y-4.0964 I-1.606 J0.984
G2 X22.0947 Y-4.452 I-1.1036 J1.5313
G2 X20.5768 Y-3.8161 I-0.0483 J2.0144
G2 X20.0751 Y-2.9602 I1.6482 J1.5409
G2 X19.8998 Y-1.9837 I3.5823 J1.147
G1 X25.3151
G3 X25.3219 Y-1.6555 I-12.2774 J0.4199
G3 X25.1268 Y-0.1725 I-5.225 J0.0669
G3 X24.3988 Y1.1342 I-3.12 J-0.882
G3 X23.3168 Y1.8883 I-2.2251 J-2.0393
G3 X22.0194 Y2.1256 I-1.2539 J-3.1899
G3 X20.6858 Y1.885 I-0.046 J-3.5615
G3 X19.5717 Y1.1137 I1.1508 J-2.8527
G3 X18.952 Y0.1397 I2.4386 J-2.2355
G0 Z3.0
G0 X26.8261
G0 Z1.5
(Start outside of letter p)
G1 F300.0 Z0.0
G1 F800.0 Y-8.0826
G1 X28.0569
G1 Y-4.5477
G3 X28.8568 Y-5.2041 I1.9697 J1.5849
G3 X29.9645 Y-5.4639 I1.0721 J2.0794
G3 X31.5644 Y-4.9921 I-0.0106 J2.9846
G3 X32.7268 Y-3.6246 I-1.611 J2.5471
G3 X33.1302 Y-1.6145 I-4.4485 J1.9383
G3 X32.7678 Y0.2932 I-4.9113 J0.0553
G3 X31.6943 Y1.647 I-2.7382 J-1.0687
G3 X30.0534 Y2.1256 I-1.5882 J-2.3929
G3 X28.8432 Y1.8453 I-0.0698 J-2.4512
G3 X27.9475 Y1.0179 I1.3636 J-2.3748
G1 Y1.9615
G1 X26.8261
G1 Y0.1397
G0 Z3.0
G0 X34.6139
G0 Z1.5
(Start outside of 2nd letter p)
G1 F300.0 Z0.0
G1 F800.0 Y-8.0826
G1 X35.8446
G1 Y-4.5477
G3 X36.6446 Y-5.2041 I1.9697 J1.5849
G3 X37.7523 Y-5.4639 I1.0721 J2.0794
G3 X39.3522 Y-4.9921 I-0.0106 J2.9846
G3 X40.5146 Y-3.6246 I-1.611 J2.5471
G3 X40.918 Y-1.6145 I-4.4485 J1.9383
G3 X40.5556 Y0.2932 I-4.9113 J0.0553
G3 X39.4821 Y1.647 I-2.7382 J-1.0687
G3 X37.8412 Y2.1256 I-1.5882 J-2.3929
G3 X36.6309 Y1.8453 I-0.0698 J-2.4512
G3 X35.7352 Y1.0179 I1.3636 J-2.3748
G1 Y1.9615
G1 X34.6139
G1 Y0.1397
G0 Z3.0
G0 X42.388
G0 Z1.5
(Start letter R)
G1 F300.0 Z0.0
G1 F800.0 Y-5.2998
G1 X43.6187
G1 Y-1.4982
G2 X43.8239 Y-0.0624 I4.8034 J0.0464
G2 X44.282 Y0.6077 I1.2475 J-0.3612
G2 X45.0067 Y0.8538 I0.715 J-0.9153
G2 X45.9093 Y0.5872 I-0.0311 J-1.7661
G1 X46.3332 Y1.729
G3 X45.0683 Y2.1256 I-1.3266 J-2.0157
G3 X44.2751 Y1.8795 I-0.0058 J-1.3824
G3 X43.8343 Y1.4092 I1.2069 J-1.5733
G3 X43.4957 Y0.8607 I4.5934 J-3.2141
G1 Y1.9615
G1 X42.388
G1 Y0.1397
G0 Z3.0
G0 X7.825
G0 Z1.5
(Start letter i bottom portion)
G1 F300.0 Z0.0
G1 F800.0 Y1.9615
G1 X6.5943
G1 Y-5.2998
G1 X7.825
G1 Y0.1397
G0 Z3.0
G0 X4.6798
G0 Z1.5
(Starting lowercase letter l)
G1 F300.0 Z0.0
G1 F800.0 Y4.7238
G1 X3.4491
G1 Y-5.2998
G1 X4.6798
G1 Y0.1397
G0 Z3.0
G0 X1.603
G0 Z1.5
(Lower part of letter i)
G1 F300.0 Z0.0
G1 F800.0 Y1.9615
G1 X0.3723
G1 Y-5.2998
G1 X1.603
G1 Y0.1397
G0 Z3.0
G0 X-1.5303 Y-0.1233
G0 Z1.5
G1 F300.0 Z0.0
G3 F800.0 X-1.5564 Y0.1284 I-6.3674 J-0.5345
G3 X-1.7678 Y0.9291 I-2.8075 J-0.3131
G3 X-2.6157 Y1.8042 I-1.6666 J-0.7662
G3 X-4.0173 Y2.1256 I-1.3329 J-2.5964
G3 X-5.2187 Y1.8754 I-0.0344 J-2.8442
G3 X-6.1916 Y1.1273 I1.2206 J-2.5941
G1 Y4.7238
G1 X-7.4223
G1 Y-5.2998
G1 X-6.1916
G1 Y-1.3273
G2 X-6.152 Y-0.6476 I5.3226 J0.031
G2 X-5.9865 Y0.0128 I2.5611 J-0.291
G2 X-5.3028 Y0.7786 I1.4644 J-0.6193
G2 X-4.2703 Y1.0658 I1.0313 J-1.7083
G2 X-3.6612 Y0.9737 I0.0276 J-1.8787
G2 X-3.1421 Y0.6419 I-0.3971 J-1.1929
G2 X-2.8152 Y0.0095 I-1.0149 J-0.9255
G2 X-2.7387 Y-0.6982 I-2.8809 J-0.6692
G1 Y-5.2998
G1 X-1.508
G1 Y-0.6982
G3 X-1.5303 Y-0.1233 I-6.3897 J0.0405
G0 Z3.0
G0 X0.3723 Y3.3085
G0 Z1.5
(Cap of letter i)
G1 F300.0 Z0.0
G1 F800.0 X1.603
G1 Y4.7238
G1 X0.3723
G1 Y3.3085
G0 Z3.0
G0 X6.5943
G0 Z1.5
(Cap of other letter i)
G1 F300.0 Z0.0
G1 F800.0 X7.825
G1 Y4.7238
G1 X6.5943
G1 Y3.3085
G0 Z3.0
G0 X-9.0702 Y1.9752
G0 Z1.5
G1 F300.0 Z0.0
G3 F800.0 X-9.6052 Y3.1711 I-4.3317 J-1.2203
G3 X-10.4992 Y4.129 I-3.0966 J-1.9941
G3 X-11.7011 Y4.72 I-2.2027 J-2.9617
G3 X-13.029 Y4.8947 I-1.2857 J-4.637
G3 X-15.4631 Y4.2862 I-0.0499 J-4.973
G3 X-17.1656 Y2.5153 I1.9695 J-3.5973
G3 X-17.6256 Y1.1867 I4.6518 J-2.3546
G3 X-17.7605 Y-0.2128 I6.7994 J-1.3614
G3 X-17.234 Y-2.8999 I6.8598 J-0.0511
G3 X-16.6055 Y-3.9735 I4.312 J1.8035
G3 X-15.6887 Y-4.8144 I3.0375 J2.3915
G3 X-14.416 Y-5.3312 I2.0912 J3.3243
G3 X-13.0495 Y-5.4707 I1.3137 J6.1029
G3 X-11.6526 Y-5.2721 I0.0423 J4.7131
G3 X-10.4034 Y-4.6161 I-1.1166 J3.6435
G3 X-9.4437 Y-3.4934 I-2.4456 J3.0624
G3 X-8.8992 Y-2.1204 I-4.7043 J2.6599
G1 X-10.2257 Y-1.7854
G2 X-10.588 Y-2.8273 I-4.1023 J0.8426
G2 X-11.2718 Y-3.693 I-2.4678 J1.2464
G2 X-12.1575 Y-4.1843 I-1.7219 J2.0603
G2 X-13.1589 Y-4.3357 I-0.9721 J3.0414
G2 X-14.8614 Y-3.864 I-0.0159 J3.2503
G2 X-15.5626 Y-3.2509 I1.3425 J2.2432
G2 X-16.0238 Y-2.4418 I2.4566 J1.9361
G2 X-16.3108 Y-1.3408 I4.9654 J1.8825
G2 X-16.393 Y-0.206 I7.3642 J1.1036
G2 X-16.0785 Y1.7154 I5.9561 J0.0114
G2 X-14.9913 Y3.2059 I2.7916 J-0.8943
G2 X-14.0675 Y3.6353 I1.6493 J-2.3403
G2 X-13.0563 Y3.7597 I0.9777 J-3.7725
G2 X-12.181 Y3.6478 I0.0301 J-3.2429
G2 X-11.388 Y3.2606 I-0.6247 J-2.2851
G2 X-10.7597 Y2.5418 I-1.5175 J-1.9606
G2 X-10.3761 Y1.6675 I-3.6097 J-2.105
G1 X-9.0702 Y1.9752
( ChiliPeppr Icon )
S1000
G0 Z3.0
G0 X-13.8779 Y29.3208
G0 Z2.0
G1 F300.0 Z0.0
G3 F800.0 X-13.995 Y29.7332 I-0.9533 J-0.0479
G3 X-14.3003 Y30.0343 I-0.7183 J-0.4228
G3 X-14.5632 Y30.1488 I-0.6632 J-1.1647
G3 X-14.9327 Y30.2243 I-0.5645 J-1.8184
G3 X-15.1458 Y30.2414 I-0.2796 J-2.1471
G3 X-15.7001 Y30.2329 I-0.1938 J-5.4157
G3 X-15.7713 Y30.2282 I0.0386 J-1.1323
G1 X-16.0922 Y30.2064
G3 X-18.085 Y29.9851 I1.032 J-18.3732
G3 X-19.0557 Y29.8001 I5.1353 J-29.5849
G1 X-19.3778 Y29.7315
G1 X-19.8065 Y29.6355
G3 X-21.5077 Y29.1973 I6.6899 J-29.4921
G3 X-21.9884 Y29.0524 I4.1841 J-14.7489
G1 X-22.2432 Y28.9702
G1 X-22.5135 Y28.8779
G3 X-22.931 Y28.6848 I0.9528 J-2.6079
G3 X-23.3202 Y28.4395 I2.7186 J-4.7444
G1 X-23.5735 Y28.2668
G2 X-23.7196 Y28.1701 I-1.7444 J2.4753
G2 X-24.1259 Y27.9401 I-1.8754 J2.8394
G2 X-24.7277 Y27.7708 I-0.7735 J1.5952
G2 X-24.9754 Y27.7886 I-0.0502 J1.0334
G2 X-25.2176 Y27.8435 I0.6435 J3.4033
G2 X-25.3771 Y27.8874 I0.6859 J2.7998
G1 X-25.5886 Y27.9492
G1 X-25.8705 Y28.0312
G1 X-26.0322 Y28.0755
G3 X-26.2181 Y28.1222 I-1.46 J-5.4172
G3 X-26.7207 Y28.2136 I-1.007 J-4.1088
G3 X-27.4289 Y28.2351 I-0.5075 J-5.0454
G3 X-27.4519 Y28.2345 I-0.0067 J-0.1742
G3 X-27.4755 Y28.2338 I-0.0064 J-0.1827
G3 X-27.7272 Y28.2235 I0.1546 J-6.8722
G1 X-28.0624 Y28.2051
G2 X-28.5093 Y28.1815 I-1.4972 J24.0381
G1 X-28.7649 Y28.1738
G1 X-28.9013 Y28.1733
G1 X-29.0468 Y28.177
G2 X-29.3779 Y28.2136 I0.054 J2.0051
G2 X-29.7605 Y28.3084 I1.0209 J4.9407
G2 X-30.1346 Y28.4323 I1.3098 J4.5813
G2 X-30.8583 Y28.7435 I3.1636 J8.3553
G1 X-31.0608 Y28.8417
G1 X-31.599 Y29.1065
G3 X-32.336 Y29.4157 I-2.821 J-5.6912
G3 X-32.5403 Y29.4775 I-0.8466 J-2.4315
G3 X-33.0218 Y29.5639 I-0.7204 J-2.6298
G3 X-33.5851 Y29.5421 I-0.1903 J-2.3717
G3 X-34.1707 Y29.3313 I0.2594 J-1.6398
G3 X-34.6506 Y28.935 I1.1445 J-1.8748
G1 X-34.7695 Y28.8023
G1 X-34.8993 Y28.646
G2 X-35.2353 Y28.2257 I-32.5978 J25.7231
G1 X-35.3283 Y28.1167
G1 X-35.4312 Y28.0039
G2 X-35.6862 Y27.7668 I-1.746 J1.6224
G2 X-36.0207 Y27.5493 I-1.118 J1.3536
G2 X-36.3504 Y27.4364 I-0.5559 J1.0859
G2 X-36.6982 Y27.415 I-0.2736 J1.6021
G2 X-36.9298 Y27.4309 I0.2694 J5.6215
G3 X-37.2382 Y27.4355 I-0.1829 J-1.8966
G3 X-37.6234 Y27.281 I0.0583 J-0.7028
G3 X-37.7921 Y27.1065 I0.75 J-0.8938
G1 X-38.0225 Y26.6428
G1 X-38.0996 Y26.4883
G2 X-38.2024 Y26.2823 I-7.8483 J3.7891
G2 X-38.2298 Y26.2274 I-0.6144 J0.2725
G1 X-38.6676 Y25.3482
G3 X-39.5216 Y23.5793 I66.6768 J-33.2798
G1 X-39.6316 Y23.3417
G1 X-39.8783 Y22.7962
G3 X-40.4973 Y21.3246 I37.2171 J-16.5211
G1 X-40.5723 Y21.1327
G1 X-40.6484 Y20.9342
G1 X-40.7256 Y20.7286
G3 X-41.4442 Y18.4994 I24.8986 J-9.2562
G3 X-41.7549 Y17.1965 I22.8994 J-6.1503
G3 X-41.7717 Y17.1138 I0.8402 J-0.2141
G3 X-42.0182 Y15.5897 I19.0045 J-3.8548
G1 X-42.0408 Y15.3949
G1 X-42.0618 Y15.1968
G3 X-41.9993 Y10.9424 I18.3519 J-1.8581
G3 X-41.7403 Y9.6192 I10.4118 J1.3508
G3 X-41.3338 Y8.3336 I13.1397 J3.4475
G1 X-41.3037 Y8.2519
G1 X-41.1613 Y7.8806
G3 X-40.7558 Y6.9011 I41.7652 J16.716
G3 X-40.7019 Y6.7753 I2.4113 J0.9588
G1 X-40.4553 Y6.2011
G2 X-40.4241 Y6.128 I-0.9413 J-0.4451
G1 X-40.2922 Y5.8162
G2 X-40.259 Y5.7368 I-0.8206 J-0.3894
G1 X-40.1912 Y5.5727
G2 X-39.8948 Y4.8176 I-21.9489 J-9.0504
G2 X-39.877 Y4.7696 I-0.4749 J-0.203
G2 X-39.5786 Y3.8843 I-14.3917 J-5.3437
G2 X-39.3111 Y2.8499 I-13.1246 J-3.9462
G2 X-39.1207 Y1.6424 I-10.8908 J-2.3362
G1 X-39.0967 Y1.4123
G1 X-39.0721 Y1.1823
G1 X-39.0209 Y0.7223
G3 X-38.9096 Y-0.1963 I109.204 J12.7638
G1 X-38.902 Y-0.2555
G1 X-38.8169 Y-0.8867
G1 X-38.7929 Y-1.0549
G1 X-38.7361 Y-1.4389
G3 X-38.6675 Y-1.8772 I16.7561 J2.4017
G3 X-38.4618 Y-3.0422 I32.8528 J5.1997
G3 X-38.3274 Y-3.7048 I52.3005 J10.2624
G3 X-37.8965 Y-5.4556 I25.8768 J5.4407
G1 X-37.8322 Y-5.6793
G3 X-37.5111 Y-6.6936 I21.9061 J6.377
G3 X-36.4301 Y-9.3177 I21.819 J7.4542
G3 X-35.685 Y-10.7592 I28.8311 J13.9881
G1 X-35.4814 Y-11.1252
G1 X-35.2672 Y-11.5007
G3 X-34.2494 Y-13.193 I53.2496 J30.875
G1 X-33.1435 Y-14.9757
G1 X-32.7714 Y-15.5678
G3 X-32.268 Y-16.3528 I46.8494 J29.4908
G3 X-31.5769 Y-17.3863 I32.4238 J20.9332
G1 X-31.3874 Y-17.6583
G1 X-31.2885 Y-17.7979
G1 X-31.1856 Y-17.9415
G3 X-30.7027 Y-18.589 I16.9848 J12.1626
G3 X-30.6397 Y-18.67 I1.128 J0.8121
G3 X-30.0422 Y-19.3931 I12.7878 J9.9592
G3 X-29.8101 Y-19.6475 I6.1734 J5.3997
G1 X-29.572 Y-19.8962
G1 X-29.5032 Y-19.9666
G1 X-29.3185 Y-20.1529
G3 X-28.5654 Y-20.8836 I29.5686 J29.7193
G1 X-28.3469 Y-21.0888
G3 X-26.5503 Y-22.6771 I30.258 J32.4163
G1 X-26.3036 Y-22.8804
G1 X-26.0381 Y-23.0945
G3 X-25.8999 Y-23.2036 I4.9088 J6.0692
G1 X-25.6026 Y-23.433
G3 X-24.9047 Y-23.9332 I7.9627 J10.3733
G3 X-24.5171 Y-24.1777 I4.2717 J6.3414
G3 X-24.0821 Y-24.4027 I2.0864 J3.5018
G3 X-23.8421 Y-24.4857 I0.6162 J1.3919
G2 X-22.4488 Y-24.8684 I-6.7662 J-27.3643
G1 X-22.251 Y-24.9276
G1 X-22.0253 Y-24.9961
G1 X-21.4241 Y-25.1813
G1 X-20.6226 Y-25.4286
G3 X-19.5491 Y-25.7417 I10.9532 J35.5531
G3 X-18.0974 Y-26.0831 I4.8668 J17.4367
G3 X-17.7051 Y-26.1498 I1.6512 J8.5307
G3 X-16.7997 Y-26.2457 I1.5123 J9.9526
G3 X-16.3137 Y-26.257 I0.3986 J6.6764
G3 X-17.1762 Y-24.3887 I-35.8294 J-15.4085
G3 X-18.1394 Y-22.5702 I-37.3086 J-18.595
G3 X-18.8244 Y-21.3815 I-44.8226 J-25.0409
G1 X-19.224 Y-20.7071
G1 X-19.4377 Y-20.3477
G1 X-19.9231 Y-19.5247
G1 X-20.178 Y-19.0834
G2 X-20.7422 Y-18.0645 I29.1634 J16.8141
G2 X-21.1657 Y-17.2074 I14.408 J7.6531
G1 X-21.2984 Y-16.9175
G1 X-21.4718 Y-16.5295
G1 X-21.5699 Y-16.3074
G1 X-21.6817 Y-16.0533
G1 X-21.8099 Y-15.7632
G3 X-22.1598 Y-14.9933 I-35.563 J-15.6973
G3 X-22.665 Y-13.9851 I-16.2259 J-7.5007
G3 X-22.735 Y-13.8574 I-2.088 J-1.0605
G3 X-23.2124 Y-13.0974 I-8.435 J-4.7692
G1 X-23.3844 Y-12.8525
G1 X-23.618 Y-12.5291
G1 X-23.9305 Y-12.0988
G2 X-24.3341 Y-11.5159 I14.4609 J10.4426
G2 X-24.4368 Y-11.357 I2.7655 J1.8998
G2 X-24.4624 Y-11.3164 I0.4127 J0.2888
G2 X-24.953 Y-10.4165 I6.736 J4.256
G2 X-25.1707 Y-9.8716 I5.3849 J2.4673
G2 X-25.3054 Y-9.4308 I6.128 J2.1138
G2 X-25.3134 Y-9.401 I0.2137 J0.0735
G2 X-25.4263 Y-8.9225 I7.2756 J1.9679
G2 X-25.5799 Y-7.9518 I10.6526 J2.1833
G2 X-25.6795 Y-5.9914 I16.6959 J1.8308
G2 X-25.6366 Y-4.6839 I21.8173 J-0.0607
G1 X-25.6135 Y-4.3359
G2 X-25.4884 Y-3.0297 I33.65 J-2.5645
G2 X-25.4344 Y-2.5956 I34.7839 J-4.108
G2 X-25.427 Y-2.5396 I0.5736 J-0.0472
G2 X-25.4193 Y-2.4818 I0.5858 J-0.0489
G2 X-25.1236 Y-0.6411 I39.4654 J-5.3952
G2 X-24.8794 Y0.5775 I42.3401 J-7.8494
G2 X-23.5986 Y5.3775 I51.8528 J-11.2659
G2 X-22.5135 Y8.5066 I57.9263 J-18.3345
G2 X-22.4131 Y8.7674 I6.6415 J-2.4072
G1 X-22.379 Y8.8541
G2 X-22.333 Y8.9695 I3.6902 J-1.4027
G1 X-22.1445 Y9.4291
G2 X-21.7509 Y10.3412 I39.7811 J-16.6282
G1 X-21.4805 Y10.9458
G1 X-21.3244 Y11.2906
G1 X-21.1453 Y11.6843
G1 X-21.0496 Y11.8942
G1 X-20.5418 Y13.0148
G3 X-20.477 Y13.1597 I-3.5265 J1.6642
G1 X-20.1844 Y13.8237
G3 X-19.4515 Y15.6147 I-37.9814 J16.5876
G3 X-19.0836 Y16.6579 I-19.2297 J7.3682
G1 X-19.0621 Y16.7242
G1 X-18.9763 Y16.9989
G1 X-18.8924 Y17.2839
G3 X-18.8518 Y17.4294 I-2.6453 J0.817
G1 X-18.7727 Y17.7308
G3 X-18.6281 Y18.3802 I-14.9465 J3.6683
G1 X-18.6203 Y18.4213
G3 X-18.514 Y19.1268 I-8.2198 J1.5994
G3 X-18.4825 Y19.4941 I-5.7468 J0.6778
G3 X-18.4775 Y19.587 I-1.1191 J0.107
G3 X-18.4737 Y19.6806 I-1.1959 J0.0951
G3 X-18.4712 Y19.7751 I-1.2787 J0.0805
G3 X-18.4702 Y19.8704 I-1.3585 J0.0627
G3 X-18.5279 Y20.6851 I-5.4231 J0.0251
G3 X-18.559 Y20.8606 I-2.97 J-0.4359
G1 X-18.5642 Y20.8856
G3 X-18.5787 Y20.952 I-0.723 J-0.1232
G3 X-18.6497 Y21.2142 I-2.8896 J-0.6418
G3 X-18.8597 Y21.715 I-2.8121 J-0.885
G3 X-19.5499 Y22.5483 I-2.4468 J-1.3241
G3 X-20.1474 Y22.9554 I-2.5396 J-3.0858
G1 X-20.3165 Y23.0478
G3 X-21.2428 Y23.4693 I-5.0728 J-9.919
G1 X-21.7782 Y23.6878
G1 X-22.0619 Y23.8059
G2 X-22.3615 Y23.9366 I3.5905 J8.6374
G2 X-22.4371 Y23.971 I0.4005 J0.9808
G2 X-22.5135 Y24.0064 I0.4353 J1.0382
G3 X-22.6714 Y25.3324 I-3.1349 J0.2991
G3 X-22.8409 Y25.7471 I-3.5788 J-1.2211
G1 X-22.8654 Y25.7995
G1 X-22.9188 Y25.9107
G1 X-22.977 Y26.0286
G1 X-23.1097 Y26.2976
G1 X-23.1778 Y26.4422
G2 X-21.5396 Y27.2798 I10.4085 J-18.3361
G2 X-19.8166 Y27.925 I5.4755 J-11.9983
G2 X-18.62 Y28.2005 I2.9181 J-9.9384
G2 X-16.9866 Y28.3286 I1.5469 J-9.2496
G2 X-14.8167 Y28.0599 I-0.1358 J-9.9928
G1 X-14.5422 Y27.9921
G3 X-14.5168 Y28.1651 I-1.0515 J0.243
G3 X-14.5146 Y28.34 I-1.7391 J0.1097
G3 X-14.5394 Y28.6882 I-6.2077 J-0.2687
G3 X-14.549 Y28.7875 I-1.8275 J-0.125
G2 X-14.5706 Y29.0521 I8.7695 J0.8498
G2 X-14.5637 Y29.4062 I1.9211 J0.1397
G2 X-14.5065 Y29.602 I0.653 J-0.0845
G2 X-14.3208 Y29.7636 I0.2832 J-0.1381
G3 X-14.333 Y29.6032 I2.6431 J-0.2827
G3 X-14.3359 Y29.4424 I1.5576 J-0.1088
G3 X-14.3278 Y29.3353 I0.599 J-0.0085
G3 X-14.2835 Y29.1984 I0.3313 J0.0317
G3 X-14.2102 Y29.1512 I0.0886 J0.0568
G3 X-14.1 Y29.1729 I0.0149 J0.2144
G3 X-13.8779 Y29.3208 I-0.4692 J0.9457
G0 Z3.0
M5
M30
